X: 1
T: RAKES O' MARLOW
S: Carey(MSS)
O: Headington
P:  A.(A2B2)4
B: Morris Ring
Z: 2005 John Chambers <jc@trillian.mit.edu>
M: 4/4
L: 1/8
K: G
P: A
|: GB    GB GB B2 | =FA    FA FA cB/A/ | GB    GB GB dg    | ed/c/ BA  G2 G2 :|
P: B
|: gf/e/ dc Bc d2 | ggf/e/ dc BG A2    | gf/e/ dc Bc dd/c/ | BG    A=F G2 G2 :|
